swiss/communes/5237.svg

<svg viewBox="0 0 212.86 255.17" xmlns="http://www.w3.org/2000/svg"><path d="M3 157.6V3h206.86v154.6c0 51.445-51.715 94.568-103.43 94.568S3 209.046 3 157.6z" fill="#0093dd" fill-rule="evenodd" stroke="#000" stroke-width="4"/><path d="M3 149.6V1.5h206.86v148.1c0 51.445-51.715 94.568-103.43 94.568S3 201.046 3 149.6z" fill="none"/><g stroke="#000" stroke-dashoffset="4.58" stroke-miterlimit="9" stroke-width="2"><path d="m26.019 186.636-1.35-40.767 7.02 3.78 5.669-25.108 6.48 3.24 3.509-22.678 5.94 3.78 7.829-25.918 6.75 6.48 6.208-26.458 4.59 5.13 15.389-19.979 5.4 6.21 12.688-15.929 6.21 5.13 9.988-11.61 4.32 4.86 12.149-6.479 4.86 5.4 9.179-10.8 5.67 5.13 12.148-9.45 4.86 4.05 17.818-8.099-5.94 15.389 5.67 3.24-4.86 11.339 5.13 2.97-9.18 15.388 4.86 4.32-8.639 10.258 7.02 2.7-10.26 14.309 5.13 5.13-19.194 18.58 4.486 4.01-19.472 12.694 3.627 4.296-20.426 11.932 4.104 4.295-30.64 5.918 5.537 5.25-33.886.954 5.155 7.922-25.58 4.296 1.717 6.3z" fill="#fcdb00" stroke-width="2.16"/><path d="M15.76 197.564a557.294 557.294 0 0 1 10.613-11.256M32.416 180.243l-7.747-34.377m19.193 23.901-6.504-45.22m19.497 35.123-9.508-54.566m22.721 44.901-8.952-67.04m23.924 55.194L74.075 62.99m25.637 62.566-5.66-77.42m21.793 62.421-3.7-72.132m18.085 57.714-1.888-64.2m18.668 46.225-2.199-47.844m16.357 31.817-2.321-37.216m16.285 20.817 1.535-25.137m1.92 21.013 20.491-6.435m-33.331 21.629 33.59-7.32M153.523 70.88l41.502-1.684m-56.081 17.755 54.46-4.796m-69.967 20.907 64.841-1.473m-80.943 17.034 66.233 5.562m-15.844 16.987-64.503-9.916M78.343 143.58l63.056 13.822m-81.091-.194 55.987 11.354M48.25 166.15l39.315 11.298M63.702 188.04l-27.866-11.078m-9.556 9.447c11.574-11.908 20.473-19.603 31.191-27.176 59.718-42.192 100.466-92.577 141.877-142.687" fill="none" stroke-width="2.16"/></g></svg>

<?xml version="1.0" encoding="UTF-8"?>
<svg viewBox="0 0 212.86 255.17" xmlns="http://www.w3.org/2000/svg"><path d="M3 157.6V3h206.86v154.6c0 51.445-51.715 94.568-103.43 94.568S3 209.046 3 157.6z" fill="#0093dd" fill-rule="evenodd" stroke="#000" stroke-width="4"/><path d="M3 149.6V1.5h206.86v148.1c0 51.445-51.715 94.568-103.43 94.568S3 201.046 3 149.6z" fill="none"/><g stroke="#000" stroke-dashoffset="4.58" stroke-miterlimit="9" stroke-width="2"><path d="m26.019 186.636-1.35-40.767 7.02 3.78 5.669-25.108 6.48 3.24 3.509-22.678 5.94 3.78 7.829-25.918 6.75 6.48 6.208-26.458 4.59 5.13 15.389-19.979 5.4 6.21 12.688-15.929 6.21 5.13 9.988-11.61 4.32 4.86 12.149-6.479 4.86 5.4 9.179-10.8 5.67 5.13 12.148-9.45 4.86 4.05 17.818-8.099-5.94 15.389 5.67 3.24-4.86 11.339 5.13 2.97-9.18 15.388 4.86 4.32-8.639 10.258 7.02 2.7-10.26 14.309 5.13 5.13-19.194 18.58 4.486 4.01-19.472 12.694 3.627 4.296-20.426 11.932 4.104 4.295-30.64 5.918 5.537 5.25-33.886.954 5.155 7.922-25.58 4.296 1.717 6.3z" fill="#fcdb00" stroke-width="2.1598"/><path d="M15.76 197.564a557.294 557.294 0 0 1 10.613-11.256" fill="none" stroke-width="2.1598"/><g fill="none"><path d="m32.416 180.243-7.747-34.377M43.862 169.767l-6.504-45.22M56.855 159.67l-9.508-54.566M70.068 150.005l-8.952-67.04M85.04 138.159 74.075 62.99M99.712 125.556l-5.66-77.42M115.845 110.557l-3.7-72.132M130.23 96.139l-1.888-64.2M147.01 78.164l-2.199-47.844M161.168 62.137l-2.321-37.216M175.132 45.738l1.535-25.137M178.587 41.614l20.491-6.435M165.747 56.808l33.59-7.32M153.523 70.88l41.502-1.684M138.944 86.951l54.46-4.796M123.437 103.062l64.841-1.473M107.335 118.623l66.233 5.562M157.724 141.172l-64.503-9.916M78.343 143.58l63.056 13.822M60.308 157.208l55.987 11.354M48.25 166.15l39.315 11.298M63.702 188.04l-27.866-11.078M26.28 186.409c11.574-11.908 20.473-19.603 31.191-27.176 59.718-42.192 100.466-92.577 141.877-142.687" stroke-width="2.1598"/></g></g></svg>
